X:1
T:19
L:1/8
Q:1/4=108
M:4/4
K:Emin
V:1 treble nm="Piano" snm="Pno."
V:1
"^Allegretto"!mp! (G>F E>^D E2 B,2 | E>F G>A B4) | (A>B c>F ^d3 e | =d>c B>^A B4) | %4
!mf! (B2 ^c^d e2 =c2 | B2 A3/2B/4A/4 G4) | (F2 GA B3 E |!>(! ^D>^C D>E!>)! E4) |] %8

